package/converter/svg/solid/cart-flatbed-boxes.svg

<svg xmlns="http://www.w3.org/2000/svg" viewBox="0 0 640 512"><!-- Font Awesome Pro 6.0.0-alpha2 by @fontawesome - https://fontawesome.com License - https://fontawesome.com/license (Commercial License) --><path d="M448 160H512C529.6 160 544 145.602 544 128V64C544 46.398 529.6 32 512 32H448C430.4 32 416 46.398 416 64V128C416 145.602 430.4 160 448 160ZM448 320H576C593.6 320 608 305.602 608 288V224C608 206.398 593.6 192 576 192H448C430.4 192 416 206.398 416 224V288C416 305.602 430.4 320 448 320ZM224 320H352C369.6 320 384 305.602 384 288V64C384 46.398 369.6 32 352 32H224C206.4 32 192 46.398 192 64V288C192 305.602 206.4 320 224 320ZM624 384H128V64C128 28.801 99.201 0 64 0H16C7.201 0 0 7.199 0 16V48C0 56.801 7.201 64 16 64H48C56.838 64 64 71.164 64 80V432C64 440.801 71.201 448 80 448H162.938C161.15 453.027 160 458.359 160 464C160 490.508 181.49 512 208 512S256 490.508 256 464C256 458.359 254.85 453.027 253.062 448H450.938C449.15 453.027 448 458.359 448 464C448 490.508 469.49 512 496 512S544 490.508 544 464C544 458.359 542.85 453.027 541.062 448H624C632.801 448 640 440.801 640 432V400C640 391.199 632.801 384 624 384Z"/></svg>

<svg xmlns="http://www.w3.org/2000/svg" viewBox="0 0 640 512"><!--! Font Awesome Pro 6.6.0 by @fontawesome - https://fontawesome.com License - https://fontawesome.com/license (Commercial License) Copyright 2024 Fonticons, Inc. --><path d="M32 0C14.3 0 0 14.3 0 32S14.3 64 32 64l16 0c8.8 0 16 7.2 16 16l0 288c0 44.2 35.8 80 80 80l18.7 0c-1.8 5-2.7 10.4-2.7 16c0 26.5 21.5 48 48 48s48-21.5 48-48c0-5.6-1-11-2.7-16l197.5 0c-1.8 5-2.7 10.4-2.7 16c0 26.5 21.5 48 48 48s48-21.5 48-48c0-5.6-1-11-2.7-16l66.7 0c17.7 0 32-14.3 32-32s-14.3-32-32-32l-464 0c-8.8 0-16-7.2-16-16l0-288C128 35.8 92.2 0 48 0L32 0zM224 32c-17.7 0-32 14.3-32 32l0 224c0 17.7 14.3 32 32 32l128 0c17.7 0 32-14.3 32-32l0-224c0-17.7-14.3-32-32-32L224 32zM416 64l0 64c0 17.7 14.3 32 32 32l64 0c17.7 0 32-14.3 32-32l0-64c0-17.7-14.3-32-32-32l-64 0c-17.7 0-32 14.3-32 32zm32 128c-17.7 0-32 14.3-32 32l0 64c0 17.7 14.3 32 32 32l128 0c17.7 0 32-14.3 32-32l0-64c0-17.7-14.3-32-32-32l-128 0z"/></svg>
